X: 20821
M: 6/8
L: 1/8
K: F
V: 1 name="1"
c2c d2d | c2f a2z | ag^f gde | gfe fAB |\
c2c d2d | c2f a2c | ag^f gde | f3 z2 H|]
a |\
agf gdg | ece fdg | egc dag | c3 cfg |\
a2a c'2c' | f2f a2a | ag^f gde | f3 "^D.C."z2 |]
K: Bb
z |\


